X:85
T:Down by a Riverside - Townsend
C:Taken down from Jas. Townsend, by H.Fl.S.
%%VWML:SBG-1-1-399-0
F:http://www.vwml.org/record/SBG/1/1/399
Z:Original Sibleius Transcription by Martin and Shan Graebe
L:1/8
M:2/4
I:linebreak $
K:C
G2 GD | GB de | dB GG | BG EF/G/ | AB EG | F2 E2 | D4 || G2 GD | GB de |$ dB Gc | B2 A2 | GFED | 
G2 GD | GA Be | dB Gc | B2 A2 | GFED | B2 A2 | G4 |] 



